X:1
T:Title
%%score { 1 | 2 }
L:1/8
M:3/4
K:Ab
V:1 treble nm="Grand Piano"
V:2 bass 
V:1
 z2 z2[Q:1/4=100] cB | [CA]2 [CE]2 [Fd][Ec] | [FB]2 [DF]2 [DG][DF] | E3 A B[Ec] |[M:2/4] [EB]4 | %5
[M:1/4] [Ec][Ed] |[M:3/4] [Ee]3 [Ec] [_GB][Gc] | [Fd]2 [DF]2 [=DB][DA] | G3 d cB | [CA]6 | %10
[M:4/4] c2 (3ccc e3 A | BAGF E4 | B2 (3BBB [Gd]3 [EG] | [EA]2 [EB][EB] [Ec]4 | %14
 c2 (3ccc [=Af]3 [Ae] | e2 dc d3 =d | [Ge]2 [Ae][Ae] [Ae]3 [EA] | [EB]2 [DEG]2 [CEA] [CEA]3 |] %18
V:2
 z2 z2 [E,A,E][E,G,D] | [A,,A,]2 [A,,A,]2 [B,,A,][C,A,] | [D,B,]2 [D,B,]2 [B,,B,][B,,A,] | %3
 [E,G,D]3 [E,A,C] [E,G,D][A,,A,] |[M:2/4] [E,G,]4 |[M:1/4] [E,G,][D,G,] | %6
[M:3/4] [C,A,]3 [A,,A,] [A,,A,][A,,A,] | [D,A,]2 [D,A,]2 [B,,A,][B,,A,] | %8
 [E,B,E]3 [E,G,E] [E,A,E][E,G,D] | [A,,A,]6 | %10
[M:4/4][K:treble] [A,EA]2 (3[A,EA][A,EA][A,EA] [A,CA]3[K:bass] A, | B,A,G,F, E,4 | %12
 [E,G,E]2 (3[E,G,E][E,G,E][E,G,E] [E,B,]3 [D,B,] | [C,A,]2 [B,,G,][B,,G,] [A,,A,]4 | %14
 [A,EA]2 (3[A,EA][A,EA][A,EA][K:bass] [F,E]3 [F,C] | [B,DB]2 [B,FB][B,FB] [B,FB]3 [B,FG] | %16
 [E,E]2 [A,C][A,C] [C,A,]3 [C,A,] | [E,G,]2 E,2 A,, A,,3 |] %18

